X: 482
T: The flogging reel
C:anon.
O:Ireland
B:Francis O'Neill: "The Dance Music of Ireland" (1907) no. 482
R:Reel
Z:Transcribed by Frank Nordberg - http://www.musicaviva.com
F:http://www.musicaviva.com/abc/tunes/ireland/oneill-1001/oneill-1001-048
2.abc
m:Tn = (3n/o/n/
M:C|
L:1/8
K:G
(dc)W|B>(G {A}(3GFG) BGdG|B>(G {A}(3GFG) Bdgd|B>(G {A}(3GFG) BdcB|AGFG AB
cA:|(Tgfg)d BGBd|
{a}gfge fgaf|(Tgfg)d BcdB|AGFG ABcA|(Tgfg)e BGBd|(Tgfg)e fgaf|bgaf gedB|A
GFG ABcA||Bdgd (3Bcd (gd)|
Bdgd BGGB|Ac=fc (3ABc (fc)|Ac=fc AFFc|Bdgd (3Bcd (gd)|Bdef {a}gfga| b
gaf gedB|AGFG ABcAW|]
W:
W:
W:  From Musica Viva - http://www.musicaviva.com
W:  the Internet center for free sheet music downloads.


